assets/2023/icons/actionScript.svg

<!-- Copyright 2000-2023 JetBrains s.r.o. and contributors. Use of this source code is governed by the Apache 2.0 license. -->
<svg width="16" height="16" viewBox="0 0 16 16" fill="none" xmlns="http://www.w3.org/2000/svg">
<path d="M2.54077 13L4.46077 2.50001H6.27577L8.23327 13H6.80077L5.46577 4.77251L5.36827 4.07501L5.27077 4.77251L4.01077 13H2.54077ZM3.65077 10.2775V9.10001H7.01077V10.2775H3.65077Z" fill="#DB3B4B"/>
<path d="M10.943 13.18C10.398 13.18 9.9455 13.065 9.5855 12.835C9.2255 12.605 8.9555 12.2575 8.7755 11.7925C8.6005 11.3275 8.513 10.7325 8.513 10.0075H9.9455C9.9455 10.4475 9.9805 10.81 10.0505 11.095C10.1255 11.38 10.238 11.5925 10.388 11.7325C10.538 11.8675 10.728 11.935 10.958 11.935C11.173 11.935 11.3505 11.87 11.4905 11.74C11.6305 11.61 11.733 11.415 11.798 11.155C11.868 10.89 11.903 10.55 11.903 10.135C11.903 9.69001 11.838 9.33251 11.708 9.06251C11.583 8.78751 11.3855 8.57751 11.1155 8.43251L10.2755 8.02751C9.9155 7.83251 9.618 7.60501 9.383 7.34501C9.153 7.08501 8.9805 6.78251 8.8655 6.43751C8.7555 6.09251 8.7005 5.69751 8.7005 5.25251C8.7005 4.58751 8.7805 4.03751 8.9405 3.60251C9.1005 3.16751 9.343 2.84501 9.668 2.63501C9.993 2.42501 10.403 2.32001 10.898 2.32001C11.398 2.32001 11.813 2.42751 12.143 2.64251C12.473 2.85251 12.7205 3.17251 12.8855 3.60251C13.0505 4.03251 13.1355 4.58501 13.1405 5.26001H11.708C11.708 4.87001 11.678 4.55251 11.618 4.30751C11.558 4.05751 11.4705 3.87251 11.3555 3.75251C11.2405 3.62751 11.093 3.56501 10.913 3.56501C10.643 3.56501 10.443 3.70001 10.313 3.97001C10.183 4.23501 10.118 4.65501 10.118 5.23001C10.118 5.60501 10.1805 5.91251 10.3055 6.15251C10.4305 6.39251 10.623 6.58501 10.883 6.73001L11.768 7.16501C12.123 7.35501 12.4155 7.58751 12.6455 7.86251C12.8755 8.13251 13.048 8.45251 13.163 8.82251C13.278 9.19251 13.3355 9.61751 13.3355 10.0975C13.3355 10.7975 13.248 11.375 13.073 11.83C12.898 12.285 12.633 12.625 12.278 12.85C11.923 13.07 11.478 13.18 10.943 13.18Z" fill="#DB3B4B"/>
</svg>

<svg xmlns="http://www.w3.org/2000/svg" width="16" height="16" fill="none" viewBox="0 0 16 16"><path fill="#DB3B4B" d="M2.54 13 4.46 2.5h1.816L8.233 13H6.801L5.466 4.773l-.098-.698-.097.698L4.01 13zm1.11-2.722V9.1h3.36v1.178zm7.293 2.902q-.818 0-1.357-.345-.54-.345-.81-1.043-.263-.697-.263-1.784h1.432q0 .66.105 1.087.113.427.338.637a.82.82 0 0 0 .57.203.75.75 0 0 0 .533-.195q.21-.195.307-.585.105-.398.105-1.02 0-.667-.195-1.072a1.32 1.32 0 0 0-.592-.63l-.84-.405a3.3 3.3 0 0 1-.893-.683 2.6 2.6 0 0 1-.517-.907A3.9 3.9 0 0 1 8.7 5.253q0-.997.24-1.65t.727-.968 1.23-.315q.75 0 1.245.323.495.315.742.96t.255 1.657h-1.432q0-.585-.09-.952-.09-.375-.263-.555a.57.57 0 0 0-.442-.188q-.405 0-.6.405-.195.397-.195 1.26 0 .563.188.923.187.36.577.577l.885.435q.532.285.877.698.345.405.518.96.172.555.172 1.274 0 1.05-.262 1.733t-.795 1.02q-.533.33-1.335.33"/></svg>
